X:1
T:Thirsis, let pity move thee - Morley
T:#
%%score [ 1 2 3 ]
L:1/8
Q:1/4=112
M:4/4
K:Bb
V:1 treble nm="Soprano" snm="S"
V:2 treble nm="Alto" snm="A"
V:3 treble-8 nm="Tenor" snm="T"
V:1
 B8 | A8 | z2 d2"^Thirsis, let pity move thee" d2 d2 | c3 d B3 c | %4
w: Thir-|sis,|let, let, let|pi- ty, pi- ty|
 A2 d2 c2"^Thomas Morley\n(1557-1603)" f2 |[M:4/4] e2 d2 c4 | d8 | z2 B2 c3 B | A2 G2 A4 | %9
w: let, let some, some|pi- ty move|thee,|O let some|pi- ty move|
 =B2 G2 d2 c_B | A2 B2 c2 d2 | B4 (A2 B2) | c2 (B2 A4) | B4 A2 d2 | c2 d2 (d2 c2) | d8 | z4 z2 d2 | %17
w: thee; Thou know'st, O a-|las, thy Clo- ris|too, too *|well doth *|love thee, too|well doth love *|thee,|thou|
 f2 ed c2 f2 | e2 d2 c4 | d8 | z2 B2 c3 B | A2 G2 A4 | G4 z4 | d2 d3 d c2 | d2 B2 A4 | %25
w: know'st, O a- las, too|well doth love|thee;|Then why, O|dost thou fly|me?|I faint, a- las,|O I faint,|
 z2 c2 d2 B2 | A4 G4 | z4 d2 d2- | dd c2 d2 B2 | A4 z2 c2 | d2 B2 A4 | G4 z4 | z2 g3 f e2 | %33
w: here must I|lie me,|I faint,|* a- las, O I|faint, here|must I lie|me.|Cry, a- las,|
 d2 c2 =B2 e2 | d2 c4 =B2 | c4 G2 c2- | cB A2 G2 F2 | =E2 F2 G4 | A2 d3 c B2 | A2 G2 ^F2 B2 | %40
w: now for grief, since|he is be-|reft thee. Up|* the hills, down the|dales thou seest,|dear, up the hills,|down the dales, I|
 A2 G4 ^F2 | G4 z4 | z4 g4 | f3 f e3 e | (d3 c/B/ c2) c2 | B2 c2 d4 | c2 d2 e4 | d8 | z4 z2 B2 | %49
w: have not left|thee.|Ah,|can these trick- ling|tears, * * * these|tears of mine,|not pro- cure|love,|can|
 c3 c (B3 A/G/ | A2) d2 c2 f2- | e2 (d4 c2) | d4 z2 d2 | f3 f e3 e | (d3 c/B/ c2) c2 | %55
w: not these trick\- * *|* ling tears pro-|* cure *|love? What|shep- herd ev- er|kill'd * * * a|
 B2 c2 d2 d2 | c3 d B3 c | A2 G2 A4 | =B4 z4 | z4 z2 G2 | c3 c B3 B | A2 B2 G4 | ^F2 F2 G2 A2 | %63
w: nymph, what shep- herd|ev- er kill'd a|nymph for pure|love!|See,|cru- el, cru- el,|see the beasts,|see their tears, they|
 B2 G2 ^F4 | G4 z2[Q:1/4=111] A2 |[Q:1/4=109] B2[Q:1/4=107] c2[Q:1/4=104] d4- | %66
w: do re- ward|me; Yet|thou dost not|
[Q:1/4=101] d2[Q:1/4=100] B2[Q:1/4=97] A4 |[Q:1/4=96] =B8 |] %68
w: * re- gard|me.|
V:2
 G8 | ^F8 | z2 B2 B2 B2 | A3 B G3 A | ^F2 B2 A2 d2 |[M:4/4] c2 (B4 A2) | B2 F2 B3 A | G2 G2 A3 G | %8
w: Thir-|sis,|let, let, let|pi- ty, pi- ty,|let some, some pi-|ty move *|thee, let pi- ty,|Thir- sis, pi- ty|
 (^F2 G4 F2) | G2 G2 B2 AG | ^F2 G2 A2 F2 | G4 (F2 G2) | A2 G2 (G2 ^F2) | G2 G2 F2 B2 | A2 B2 G4 | %15
w: move * *|thee; Thou know'st, O a-|las, thy Clo- ris|too, too *|well doth love *|thee, too well, too|well, doth love|
 ^F4 z2 A2 | B2 AG F2 B2 | A6 F2 | (GA B4 A2) | B2 F2 B3 A | G2 G2 A3 G | ^F2 G2 (G2 F2) | %22
w: thee, thou|know'st, O a- las, too|well doth|love * * *|thee; Yet thou, un-|kind, yet thou, un-|kind, dost fly *|
 G4 B2 B2- | BB A2 B2 G2 | ^F2 G4 F2 | G2 A2 B2 G2 | ^F4 G4 | B2 B3 B A2 | B2 G2 ^F2 G2- | %29
w: me. I faint,|* a- las, see I|faint, O I|faint, here must I|lie me,|I faint, a- las,|O I faint, O|
 G2 ^F2 G2 A2 | B2 G2 ^F4 | G2 B3 A G2 | F2 E2 D2 G2- | GF E2 D2 C2 | =B,2 E2 D4 | C3 (D =E2) ^F2 | %36
w: * I faint here|must I lie|me. Cry, a- las,|now for grief, cry,|* a- las, now for|grief since he|is be\- * reft|
 G2 c3 B A2 | G2 F4 =E2 | F4 D2 d2- | dc B2 A2 G2 | c2 B2 A4 | =B4 _B4 | A3 A (GF GA) | BF B4 A2 | %44
w: thee. Up hills and|down dales, thou|seest, dear, up|* hills and down, I|have not left|thee. Ah,|can these trick\- * * *|* ling tears of|
 B2 G4 ^F2 | G3 A B2 B2 | A2 (B4 A2) | B2 F2 B3 B | A2 A3 (G G2- | G2) ^F2 G2 G2 | F2 B2 A2 F2 | %51
w: mine, tears of|mine, of mine not|pro- cure *|love, ah, can these|trick- ling tears *|* of mine, of|mine, of mine not|
 G2 (B4 AG) | ^F2 =F2 B3 B | (A3 G/F/ G2) A2 | B2 (G3 ^F/=E/) F2 | G3 A B2 B2 | A3 B G3 A | %57
w: pro- cure * *|love? What shep- herd|ev\- * * * er|yet kill'd * * a|nymph, what shep- herd|ev- er kill'd a|
 ^F2 G2 (G2 F2) | G2 G2 B3 B | A2 A3 G G2- | G2 ^F2 G2 D2- | D2 D4 C2 | D2 A,2 B,2 C2 | %63
w: nymph for pure *|love! See cru- el,|see cru- el, see|* these beasts, ah,|* see the|beasts their tears, they|
 D2 B,2 A,4 | G,2 G2 =F2 E2 | D6 (=E2 | ^F2) (G4 F2) | G8 |] %68
w: do re- ward|me; Yet thou dost|not re\-|* gard *|me.|
V:3
 G8 | d8 | z2 B2 B2 B2 | f3 d e3 c | d2 B2 f2 d2 |[M:4/4][K:treble-8] e4 f4 | B4 z2 B2 | %7
w: Thir-|sis,|O let, let|pi- ty, pi- ty,|O let some pi-|ty move|thee, let|
 e3 d c2 c2 | d2 e2 d4 | G8 | z8 | z2 G2 d2 cB | A2 B2 c2 d2 | (GA) (Bc) d2 B2 | f2 d2 e4 | d6 d2 | %16
w: pi- ty, Thir- sis,|pi- ty move|thee;||Thou know'st, O a-|las, thy Clo- ris|too, * too * well, thou|know'st doth love|thee, thou|
 g2 fe d2 g2 | f6 d2 | (e4 f4) | B4 z2 B2 | e3 d c2 c2 | d8 | G4 g2 g2- | gg f2 g2 e2 | d4 z2 d2 | %25
w: know'st, O a- las. too|well doth|love *|thee; Yet|thou, un- kind, dost|fly|me. I faint,|* a- las, O I|faint, here|
 e2 c2 B3 c | d4 G4 | g2 g3 g f2 | g2 e2 d4 | z2 d2 e2 c2 | B3 c d4 | G2 g3 f e2 | d2 c2 =B2 c2 | %33
w: must, here must I|lie me,|I faint, a- las,|O I faint|here must, here|must I lie|me. Cry, a- las,|now for grief, since|
 G4 G2 G2 | G8 | C2 c3 B A2 | G2 F2 =E2 F2 | c2 A2 c4 | F2 B3 A G2 | ^F2 G2 d2 B2 | c2 G2 d4 | %41
w: he is be-|reft|thee. Up the hills,|down the dales, the|hills and dales|down, up hills and|down, I have not|left, not left|
 G4 g4 | f3 f e3 e | d2 B2 c4 | (B3 A/G/ A2) A2 | G2 e2 d2 B2 | f2 d2 c4 | B6 G2 | c3 c (B3 A/G/ | %49
w: thee. Ah,|can these trick- ling|tears of mine,|trick\- * * * ling|tears, these tears no|whit pro- cure|love, ah,|can these trick\- * *|
 A2) A2 G2 e2 | d2 B2 f2 d2 | c2 d2 e4 | d4 z2 G2 | d3 d c3 c | (B3 A/G/ A2) A2 | G2 e2 d2 B2 | %56
w: * ling tears, these|tears of mine no|whit pro- cure|love? What|shep- herd ev- er|kill'd * * * a|nymph, what shep- herd|
 f3 d e3 c | d2 e2 d4 | G6 G2 | c3 c (B3 A/G/ | A2) A2 G2 G2 | F2 D2 E4 | D8 | z4 z2 D2 | E4 F4 | %65
w: ev- er kill'd a|nymph for pure|love! See|cru- el, see * *|* the beasts, their|tears re- ward|me;|Yet|thou dost|
 G6 G2 | D8 | G8 |] %68
w: not re-|gard|me.|

